src/assets/auction.svg

<svg height="20" viewBox="0 0 20 20" width="20" xmlns="http://www.w3.org/2000/svg"><path d="m1091.97701 3.42676403c-1.25614 0-2.37381.79126989-2.78922 1.97817472h-6.11256v1.97817472h1.92872l-2.91781 6.92361153c-.46487 1.9781747.98909 2.9672621 3.46181 2.9672621 2.47271 0 4.01569-.9890874 3.4618-2.9672621l-2.91781-6.92361153h3.08596c.32639.84072425.9693 1.48363104 1.81003 1.81002987v11.04810576h-8.90179v1.9781748h19.78175v-1.9781748h-8.90179v-11.05799664c.84072-.31650795 1.48363-.95941474 1.80014-1.80013899h3.09584l-2.9178 6.92361153c-.46488 1.9781747.98908 2.9672621 3.4618 2.9672621s4.0157-.9890874 3.46181-2.9672621l-2.91781-6.92361153h1.92872v-1.97817472h-6.10267c-.42531-1.18690483-1.54298-1.97817472-2.79912-1.97817472zm0 1.97817472c.54626 0 .98909.44282949.98909.98908736 0 .54625786-.44283.98908736-.98909.98908736-.54625 0-.98908-.4428295-.98908-.98908736 0-.54625787.44283-.98908736.98908-.98908736zm-6.42906 5.19270865 1.48363 3.7090776h-2.96727zm12.85813 0 1.48363 3.7090776h-2.96726z" fill="#3d4450" transform="translate(-1082 -3)"/></svg>

<?xml version="1.0" encoding="UTF-8"?>
<svg width="20px" height="20px" viewBox="0 0 20 20" version="1.1" xmlns="http://www.w3.org/2000/svg" xmlns:xlink="http://www.w3.org/1999/xlink">
    <g id="auction" stroke="none" stroke-width="1" fill="none" fill-rule="evenodd">
        <g id="m" transform="translate(-1106.000000, -20.000000)" fill-rule="nonzero" fill="#3d4450">
            <g id="#Top" transform="translate(24.000000, 17.000000)">
                <path d="M1091.97701,3.42676403 C1090.72087,3.42676403 1089.6032,4.21803392 1089.18779,5.40493875 L1083.07523,5.40493875 L1083.07523,7.38311347 L1085.00395,7.38311347 L1082.08614,14.306725 C1081.62127,16.2848997 1083.07523,17.2739871 1085.54795,17.2739871 C1088.02066,17.2739871 1089.56364,16.2848997 1089.00975,14.306725 L1086.09194,7.38311347 L1089.1779,7.38311347 C1089.50429,8.22383772 1090.1472,8.86674451 1090.98793,9.19314334 L1090.98793,20.2412491 L1082.08614,20.2412491 L1082.08614,22.2194239 L1101.86789,22.2194239 L1101.86789,20.2412491 L1092.9661,20.2412491 L1092.9661,9.18325246 C1093.80682,8.86674451 1094.44973,8.22383772 1094.76624,7.38311347 L1097.86208,7.38311347 L1094.94428,14.306725 C1094.4794,16.2848997 1095.93336,17.2739871 1098.40608,17.2739871 C1100.8788,17.2739871 1102.42178,16.2848997 1101.86789,14.306725 L1098.95008,7.38311347 L1100.8788,7.38311347 L1100.8788,5.40493875 L1094.77613,5.40493875 C1094.35082,4.21803392 1093.23315,3.42676403 1091.97701,3.42676403 L1091.97701,3.42676403 Z M1091.97701,5.40493875 C1092.52327,5.40493875 1092.9661,5.84776824 1092.9661,6.39402611 C1092.9661,6.94028397 1092.52327,7.38311347 1091.97701,7.38311347 C1091.43076,7.38311347 1090.98793,6.94028397 1090.98793,6.39402611 C1090.98793,5.84776824 1091.43076,5.40493875 1091.97701,5.40493875 L1091.97701,5.40493875 Z M1085.54795,10.5976474 L1087.03158,14.306725 L1084.06431,14.306725 L1085.54795,10.5976474 L1085.54795,10.5976474 Z M1098.40608,10.5976474 L1099.88971,14.306725 L1096.92245,14.306725 L1098.40608,10.5976474 Z" id="Shape"></path>
            </g>
        </g>
    </g>
</svg>
